;FLAVOR:Marlin
;TIME:7495
;Filament used: 11.2755m
;Layer height: 0.3
;MINX:111.415
;MINY:116.434
;MINZ:0.3
;MAXX:198.585
;MAXY:203.566
;MAXZ:50.1
;TARGET_MACHINE.NAME:Creality CR-10S Pro
;KLIPPERSETTINGSPROCESSED
SET_VELOCITY_LIMIT ACCEL=500 SQUARE_CORNER_VELOCITY=1 ;KlipperSettingsPlugin
SET_PRESSURE_ADVANCE ADVANCE=0 EXTRUDER=extruder ;KlipperSettingsPlugin

;Generated with Cura_SteamEngine 5.9.0
M82 ;absolute extrusion mode
START_PRINT BED_TEMP=60 EXTRUDER_TEMP=200
G92 E0
G92 E0
;LAYER_COUNT:167
TUNING_TOWER COMMAND=SET_PRESSURE_ADVANCE PARAMETER=ADVANCE START=0 FACTOR=0.005 ;KlipperSettingsPlugin
;LAYER:0
M107
G0 F6000 X184.723 Y203.49 Z0.3
;TYPE:SKIRT
G1 F1200 X183.799 Y203.55 E0.0462
G1 X183.007 Y203.566 E0.08572
G1 X182.361 Y203.562 E0.11795
G1 X181.424 Y203.505 E0.16478
G1 X180.562 Y203.377 E0.20826
G1 X179.392 Y203.146 E0.26776
G1 X178.087 Y202.849 E0.33453
G1 X175.585 Y202.316 E0.46215
G1 X173.049 Y201.849 E0.5908
G1 X170.593 Y201.47 E0.71478
G1 X168.064 Y201.151 E0.84195
G1 X165.553 Y200.907 E0.96782
G1 X163.042 Y200.735 E1.09339
G1 X160.475 Y200.631 E1.22156
G1 X158.1 Y200.6 E1.34006
G1 X151.86 Y200.6 E1.65137
G1 X149.266 Y200.637 E1.7808
G1 X146.7 Y200.746 E1.90894
G1 X144.207 Y200.923 E2.03363
G1 X141.686 Y201.172 E2.16001
G1 X139.178 Y201.493 E2.28616
G1 X136.684 Y201.885 E2.41211
G1 X134.209 Y202.345 E2.5377
G1 X131.37 Y202.96 E2.68263
G1 X130.25 Y203.223 E2.74002
G1 X129.609 Y203.356 E2.77268
G1 X128.716 Y203.491 E2.81774
G1 X127.795 Y203.55 E2.86379
G1 X127.008 Y203.566 E2.90306
G1 X126.361 Y203.562 E2.93534
G1 X125.425 Y203.505 E2.98212
G1 X124.548 Y203.375 E3.02635
G1 X123.739 Y203.22 E3.06745
G1 X123.13 Y203.086 E3.09856
G1 X122.225 Y202.836 E3.1454
G1 X121.372 Y202.517 E3.19083
G1 X120.135 Y201.979 E3.25813
G1 X119.298 Y201.549 E3.30508
G1 X118.414 Y200.985 E3.35739
G1 X117.561 Y200.378 E3.40962
G1 X116.819 Y199.798 E3.45661
G1 X116.009 Y199.027 E3.5124
G1 X115.43 Y198.412 E3.55454
G1 X114.971 Y197.895 E3.58903
G1 X114.411 Y197.186 E3.63411
G1 X113.928 Y196.459 E3.67765
G1 X113.523 Y195.79 E3.71667
G1 X113.21 Y195.242 E3.74816
G1 X112.791 Y194.404 E3.7949
G1 X112.455 Y193.557 E3.84036
G1 X112.197 Y192.813 E3.87965
G1 X112.009 Y192.225 E3.91044
G1 X111.779 Y191.351 E3.95553
G1 X111.615 Y190.392 E4.00407
G1 X111.519 Y189.615 E4.04313
G1 X111.459 Y189.017 E4.07312
G1 X111.415 Y188.08 E4.11991
G1 X111.453 Y187.15 E4.16635
G1 X111.52 Y186.37 E4.20541
G1 X111.59 Y185.728 E4.23763
G1 X111.804 Y184.517 E4.29898
G1 X112.008 Y183.653 E4.34327
G1 X112.554 Y181.181 E4.46957
G1 X113.031 Y178.69 E4.59611
G1 X113.439 Y176.18 E4.72297
G1 X113.768 Y173.717 E4.84695
G1 X114.036 Y171.161 E4.97516
G1 X114.226 Y168.668 E5.0999
G1 X114.346 Y166.167 E5.22482
G1 X114.4 Y162.978 E5.38394
G1 X114.4 Y156.944 E5.68498
G1 X114.363 Y154.345 E5.81466
G1 X114.254 Y151.79 E5.94224
G1 X114.077 Y149.294 E6.06708
G1 X113.828 Y146.776 E6.19332
G1 X113.507 Y144.269 E6.31941
G1 X113.115 Y141.775 E6.44537
G1 X112.65 Y139.275 E6.57223
G1 X112.123 Y136.822 E6.69741
G1 X111.83 Y135.601 E6.76005
G1 X111.627 Y134.484 E6.81669
G1 X111.519 Y133.617 E6.86028
G1 X111.458 Y133.003 E6.89106
G1 X111.415 Y132.066 E6.93786
G1 X111.453 Y131.15 E6.9836
G1 X111.52 Y130.37 E7.02266
G1 X111.586 Y129.769 E7.05282
G1 X111.738 Y128.842 E7.09969
G1 X111.968 Y127.943 E7.14598
G1 X112.202 Y127.172 E7.18618
G1 X112.398 Y126.58 E7.21729
G1 X112.742 Y125.708 E7.26406
G1 X113.136 Y124.914 E7.30828
G1 X113.521 Y124.215 E7.34809
G1 X113.853 Y123.649 E7.38083
G1 X114.373 Y122.865 E7.42777
G1 X114.971 Y122.117 E7.47554
G1 X115.66 Y121.333 E7.52762
G1 X116.286 Y120.681 E7.57271
G1 X117.217 Y119.888 E7.63372
G1 X117.871 Y119.393 E7.67464
G1 X118.388 Y119.023 E7.70636
G1 X119.181 Y118.519 E7.75324
G1 X120.04 Y118.075 E7.80148
G1 X121.004 Y117.633 E7.85439
G1 X121.841 Y117.293 E7.89946
G1 X122.998 Y116.952 E7.95964
G1 X123.752 Y116.776 E7.99827
G1 X124.328 Y116.656 E8.02762
G1 X125.277 Y116.51 E8.07552
G1 X126.201 Y116.45 E8.12172
G1 X126.993 Y116.434 E8.16124
G1 X127.639 Y116.438 E8.19347
G1 X128.576 Y116.495 E8.2403
G1 X129.438 Y116.623 E8.28378
G1 X130.608 Y116.854 E8.34328
G1 X131.913 Y117.151 E8.41005
G1 X134.416 Y117.684 E8.53773
G1 X136.951 Y118.151 E8.66633
G1 X139.407 Y118.53 E8.79031
G1 X141.936 Y118.849 E8.91748
G1 X144.447 Y119.093 E9.04334
G1 X146.958 Y119.265 E9.16891
G1 X149.525 Y119.369 E9.29708
G1 X151.9 Y119.4 E9.41558
G1 X158.14 Y119.4 E9.7269
G1 X160.734 Y119.363 E9.85633
G1 X163.3 Y119.254 E9.98446
G1 X165.793 Y119.077 E10.10915
G1 X168.314 Y118.828 E10.23554
G1 X170.822 Y118.507 E10.36168
G1 X173.316 Y118.115 E10.48763
G1 X175.791 Y117.655 E10.61323
G1 X178.63 Y117.04 E10.75815
G1 X179.75 Y116.777 E10.81555
G1 X180.391 Y116.644 E10.84821
G1 X181.284 Y116.509 E10.89327
G1 X182.205 Y116.45 E10.93931
G1 X182.992 Y116.434 E10.97858
G1 X183.639 Y116.438 E11.01086
G1 X184.575 Y116.495 E11.05764
G1 X185.452 Y116.625 E11.10188
G1 X186.261 Y116.78 E11.14297
G1 X186.87 Y116.914 E11.17408
G1 X187.775 Y117.164 E11.22092
G1 X188.628 Y117.483 E11.26636
G1 X189.865 Y118.021 E11.33366
G1 X190.702 Y118.451 E11.3806
G1 X191.586 Y119.015 E11.43292
G1 X192.439 Y119.622 E11.48515
G1 X193.181 Y120.202 E11.53213
G1 X193.991 Y120.973 E11.58793
G1 X194.57 Y121.588 E11.63007
G1 X195.029 Y122.105 E11.66456
G1 X195.589 Y122.814 E11.70963
G1 X196.072 Y123.541 E11.75318
G1 X196.477 Y124.21 E11.79219
G1 X196.79 Y124.758 E11.82368
G1 X197.209 Y125.596 E11.87042
G1 X197.545 Y126.443 E11.91588
G1 X197.803 Y127.187 E11.95517
G1 X197.991 Y127.775 E11.98597
G1 X198.221 Y128.649 E12.03106
G1 X198.384 Y129.601 E12.07924
G1 X198.479 Y130.366 E12.1177
G1 X198.542 Y130.987 E12.14884
G1 X198.585 Y131.924 E12.19564
G1 X198.547 Y132.85 E12.24188
G1 X198.48 Y133.631 E12.28098
G1 X198.408 Y134.281 E12.31361
G1 X198.202 Y135.451 E12.37288
G1 X198.009 Y136.27 E12.41486
G1 X197.446 Y138.819 E12.5451
G1 X196.969 Y141.31 E12.67163
G1 X196.561 Y143.82 E12.7985
G1 X196.232 Y146.283 E12.92247
G1 X195.964 Y148.839 E13.05069
G1 X195.774 Y151.332 E13.17542
G1 X195.654 Y153.833 E13.30034
G1 X195.6 Y157.007 E13.45872
G1 X195.6 Y163.056 E13.7605
G1 X195.637 Y165.644 E13.88963
G1 X195.746 Y168.21 E14.01777
G1 X195.922 Y170.695 E14.14205
G1 X196.169 Y173.192 E14.26724
G1 X196.497 Y175.755 E14.39615
G1 X196.884 Y178.218 E14.52054
G1 X197.348 Y180.714 E14.6472
G1 X197.875 Y183.169 E14.77247
G1 X198.17 Y184.4 E14.83562
G1 X198.375 Y185.535 E14.89316
G1 X198.478 Y186.362 E14.93474
G1 X198.541 Y186.984 E14.96593
G1 X198.585 Y187.921 E15.01273
G1 X198.548 Y188.842 E15.05871
G1 X198.483 Y189.607 E15.09702
G1 X198.413 Y190.239 E15.12874
G1 X198.261 Y191.165 E15.17556
G1 X198.034 Y192.052 E15.22124
G1 X197.801 Y192.822 E15.26137
G1 X197.61 Y193.399 E15.2917
G1 X197.259 Y194.29 E15.33947
G1 X196.866 Y195.082 E15.38358
G1 X196.494 Y195.758 E15.42208
G1 X196.159 Y196.331 E15.45519
G1 X195.642 Y197.116 E15.50209
G1 X195.029 Y197.883 E15.55107
G1 X194.34 Y198.667 E15.60314
G1 X193.714 Y199.319 E15.64824
G1 X192.783 Y200.112 E15.70925
G1 X192.13 Y200.607 E15.75013
G1 X191.633 Y200.964 E15.78066
G1 X190.873 Y201.451 E15.82569
G1 X189.961 Y201.925 E15.87697
G1 X188.997 Y202.367 E15.92988
G1 X188.16 Y202.707 E15.97495
G1 X187 Y203.048 E16.03527
G1 X186.245 Y203.224 E16.07395
G1 X185.672 Y203.344 E16.10316
G1 X184.723 Y203.49 E16.15106
G0 F6000 X185.59 Y202.952
G1 F1200 X184.697 Y203.091 E16.19615
G1 X183.791 Y203.15 E16.24145
G1 X183.009 Y203.166 E16.28047
G1 X182.385 Y203.163 E16.3116
G1 X181.483 Y203.109 E16.35668
G1 X180.621 Y202.981 E16.40016
G1 X179.481 Y202.756 E16.45813
G1 X178.176 Y202.459 E16.5249
G1 X175.668 Y201.925 E16.65283
G1 X173.11 Y201.454 E16.7826
G1 X170.643 Y201.073 E16.90713
G1 X168.114 Y200.754 E17.03431
G1 X165.586 Y200.508 E17.16102
G1 X163.058 Y200.335 E17.28744
G1 X160.491 Y200.231 E17.41562
G1 X158.105 Y200.2 E17.53466
G1 X151.854 Y200.2 E17.84653
G1 X149.249 Y200.237 E17.9765
G1 X146.683 Y200.346 E18.10464
G1 X144.176 Y200.524 E18.23003
G1 X141.635 Y200.775 E18.35742
G1 X139.127 Y201.096 E18.48356
G1 X136.622 Y201.49 E18.61007
G1 X134.124 Y201.954 E18.73683
G1 X131.285 Y202.57 E18.88176
G1 X130.169 Y202.831 E18.93894
G1 X129.549 Y202.96 E18.97054
G1 X128.656 Y203.095 E19.0156
G1 X127.787 Y203.15 E19.05904
G1 X127.01 Y203.166 E19.09781
G1 X126.385 Y203.163 E19.12899
G1 X125.483 Y203.109 E19.17407
G1 X124.623 Y202.982 E19.21744
G1 X123.825 Y202.829 E19.25798
G1 X123.236 Y202.7 E19.28806
G1 X122.365 Y202.461 E19.33312
G1 X121.531 Y202.15 E19.37753
G1 X120.317 Y201.623 E19.44356
G1 X119.513 Y201.212 E19.48861
G1 X118.646 Y200.659 E19.53991
G1 X117.807 Y200.063 E19.59126
G1 X117.095 Y199.508 E19.6363
G1 X116.285 Y198.737 E19.69209
G1 X115.729 Y198.146 E19.73257
G1 X115.285 Y197.647 E19.76589
G1 X114.725 Y196.938 E19.81097
G1 X114.27 Y196.252 E19.85204
G1 X113.87 Y195.591 E19.89058
G1 X113.568 Y195.063 E19.92093
G1 X113.163 Y194.256 E19.96597
G1 X112.833 Y193.426 E20.01054
G1 X112.578 Y192.691 E20.04935
G1 X112.396 Y192.123 E20.07911
G1 X112.166 Y191.249 E20.1242
G1 X112.012 Y190.343 E20.17004
G1 X111.917 Y189.575 E20.20865
G1 X111.859 Y188.998 E20.23758
G1 X111.815 Y188.096 E20.28264
G1 X111.852 Y187.184 E20.32818
G1 X111.918 Y186.413 E20.36678
G1 X111.988 Y185.771 E20.399
G1 X112.193 Y184.609 E20.45787
G1 X112.399 Y183.739 E20.50247
G1 X112.945 Y181.267 E20.62877
G1 X113.424 Y178.765 E20.75587
G1 X113.834 Y176.244 E20.88329
G1 X114.166 Y173.759 E21.00837
G1 X114.434 Y171.203 E21.13659
G1 X114.625 Y168.698 E21.26193
G1 X114.746 Y166.186 E21.3874
G1 X114.8 Y162.985 E21.54712
G1 X114.8 Y156.944 E21.8485
G1 X114.763 Y154.339 E21.97848
G1 X114.654 Y151.773 E22.10661
G1 X114.476 Y149.266 E22.232
G1 X114.225 Y146.725 E22.35939
G1 X113.904 Y144.218 E22.48549
G1 X113.51 Y141.713 E22.612
G1 X113.043 Y139.202 E22.73942
G1 X112.514 Y136.738 E22.86515
G1 X112.224 Y135.529 E22.92718
G1 X112.021 Y134.412 E22.98382
G1 X111.917 Y133.577 E23.0258
G1 X111.858 Y132.984 E23.05553
G1 X111.815 Y132.082 E23.10058
G1 X111.852 Y131.184 E23.14542
G1 X111.918 Y130.413 E23.18403
G1 X111.981 Y129.833 E23.21314
G1 X112.126 Y128.941 E23.25822
G1 X112.351 Y128.059 E23.30363
G1 X112.582 Y127.297 E23.34336
G1 X112.77 Y126.726 E23.37335
G1 X113.1 Y125.886 E23.41838
G1 X113.486 Y125.107 E23.46175
G1 X113.866 Y124.417 E23.50105
G1 X114.187 Y123.869 E23.53274
G1 X114.685 Y123.115 E23.57782
G1 X115.272 Y122.381 E23.62471
G1 X115.949 Y121.61 E23.6759
G1 X116.575 Y120.958 E23.72099
G1 X117.458 Y120.207 E23.77882
G1 X118.104 Y119.718 E23.81924
G1 X118.603 Y119.36 E23.84988
G1 X119.365 Y118.874 E23.89497
G1 X120.207 Y118.439 E23.94226
G1 X121.155 Y118.004 E23.99429
G1 X121.992 Y117.664 E24.03936
G1 X123.089 Y117.342 E24.0964
G1 X123.834 Y117.168 E24.13457
G1 X124.41 Y117.048 E24.16393
G1 X125.303 Y116.909 E24.20901
G1 X126.209 Y116.85 E24.25431
G1 X126.991 Y116.834 E24.29333
G1 X127.615 Y116.837 E24.32446
G1 X128.517 Y116.891 E24.36955
G1 X129.379 Y117.019 E24.41302
G1 X130.519 Y117.244 E24.47099
G1 X131.824 Y117.541 E24.53777
G1 X134.332 Y118.075 E24.6657
G1 X136.89 Y118.546 E24.79546
G1 X139.357 Y118.927 E24.92
G1 X141.886 Y119.246 E25.04717
G1 X144.414 Y119.492 E25.17389
G1 X146.942 Y119.665 E25.30031
G1 X149.509 Y119.769 E25.42848
G1 X151.895 Y119.8 E25.54753
G1 X158.146 Y119.8 E25.85939
G1 X160.751 Y119.763 E25.98937
G1 X163.317 Y119.654 E26.1175
G1 X165.824 Y119.476 E26.24289
G1 X168.365 Y119.225 E26.37028
G1 X170.873 Y118.904 E26.49642
G1 X173.378 Y118.51 E26.62294
G1 X175.876 Y118.046 E26.74969
G1 X178.715 Y117.43 E26.89463
G1 X179.831 Y117.169 E26.95181
G1 X180.451 Y117.04 E26.9834
G1 X181.344 Y116.905 E27.02846
G1 X182.213 Y116.85 E27.0719
G1 X182.99 Y116.834 E27.11067
G1 X183.615 Y116.837 E27.14186
G1 X184.517 Y116.891 E27.18694
G1 X185.377 Y117.018 E27.23031
G1 X186.175 Y117.171 E27.27085
G1 X186.764 Y117.3 E27.30093
G1 X187.635 Y117.539 E27.34599
G1 X188.469 Y117.85 E27.3904
G1 X189.683 Y118.377 E27.45642
G1 X190.487 Y118.788 E27.50147
G1 X191.354 Y119.341 E27.55278
G1 X192.193 Y119.937 E27.60412
G1 X192.905 Y120.492 E27.64916
G1 X193.715 Y121.263 E27.70495
G1 X194.271 Y121.854 E27.74543
G1 X194.715 Y122.353 E27.77876
G1 X195.275 Y123.062 E27.82383
G1 X195.73 Y123.748 E27.8649
G1 X196.13 Y124.409 E27.90344
G1 X196.432 Y124.937 E27.93379
G1 X196.837 Y125.744 E27.97884
G1 X197.167 Y126.574 E28.0234
G1 X197.422 Y127.309 E28.06221
G1 X197.604 Y127.877 E28.09197
G1 X197.834 Y128.751 E28.13706
G1 X197.987 Y129.65 E28.18256
G1 X198.081 Y130.406 E28.22056
G1 X198.142 Y131.006 E28.25065
G1 X198.185 Y131.908 E28.2957
G1 X198.148 Y132.816 E28.34104
G1 X198.082 Y133.587 E28.37965
G1 X198.01 Y134.237 E28.41227
G1 X197.808 Y135.381 E28.47023
G1 X197.618 Y136.184 E28.5114
G1 X197.055 Y138.733 E28.64163
G1 X196.576 Y141.235 E28.76873
G1 X196.166 Y143.756 E28.89615
G1 X195.834 Y146.241 E29.02123
G1 X195.566 Y148.797 E29.14945
G1 X195.375 Y151.302 E29.27479
G1 X195.254 Y153.814 E29.40026
G1 X195.2 Y157 E29.55923
G1 X195.2 Y163.056 E29.86137
G1 X195.237 Y165.661 E29.99134
G1 X195.346 Y168.227 E30.11948
G1 X195.524 Y170.734 E30.24487
G1 X195.772 Y173.243 E30.37065
G1 X196.1 Y175.806 E30.49956
G1 X196.491 Y178.291 E30.62506
G1 X196.957 Y180.798 E30.75228
G1 X197.486 Y183.262 E30.87801
G1 X197.776 Y184.471 E30.94004
G1 X197.978 Y185.585 E30.99652
G1 X198.08 Y186.402 E31.0376
G1 X198.141 Y187.003 E31.06774
G1 X198.185 Y187.905 E31.11279
G1 X198.149 Y188.808 E31.15788
G1 X198.085 Y189.563 E31.19568
G1 X198.018 Y190.175 E31.2264
G1 X197.873 Y191.066 E31.27143
G1 X197.651 Y191.936 E31.31623
G1 X197.421 Y192.696 E31.35584
G1 X197.23 Y193.273 E31.38617
G1 X196.9 Y194.113 E31.43119
G1 X196.516 Y194.889 E31.47439
G1 X196.149 Y195.556 E31.51237
G1 X195.825 Y196.111 E31.54443
G1 X195.329 Y196.866 E31.5895
G1 X194.728 Y197.619 E31.63757
G1 X194.051 Y198.39 E31.68876
G1 X193.425 Y199.042 E31.73385
G1 X192.542 Y199.793 E31.79168
G1 X191.896 Y200.282 E31.8321
G1 X191.417 Y200.627 E31.86155
G1 X190.657 Y201.114 E31.90659
G1 X189.794 Y201.561 E31.95507
G1 X188.846 Y201.996 E32.00711
G1 X188.009 Y202.336 E32.05218
G1 X186.909 Y202.658 E32.10937
G1 X186.163 Y202.832 E32.14758
G1 X185.59 Y202.952 E32.17679
;MESH:square_tower.stl
G0 F6000 X178.033 Y190.659
G0 X155 Y189.4
;TYPE:WALL-INNER
G1 F1200 X178.412 Y189.4 E33.34482
G1 X178.598 Y189.429 E33.35421
G1 X178.893 Y189.632 E33.37208
G1 X179.444 Y190.585 E33.427
G1 X180.056 Y191.263 E33.47257
G1 X180.802 Y191.805 E33.51857
G1 X181.647 Y192.182 E33.56473
G1 X182.536 Y192.372 E33.61009
G1 X183.464 Y192.372 E33.65638
G1 X184.352 Y192.182 E33.70169
G1 X185.194 Y191.805 E33.74772
G1 X185.944 Y191.263 E33.79388
G1 X186.551 Y190.585 E33.83928
G1 X187.017 Y189.781 E33.88564
G1 X187.301 Y188.91 E33.93135
G1 X187.396 Y187.999 E33.97705
G1 X187.301 Y187.086 E34.02284
G1 X187.017 Y186.215 E34.06855
G1 X186.551 Y185.411 E34.11491
G1 X185.944 Y184.733 E34.16031
G1 X185.193 Y184.19 E34.20655
G1 X184.699 Y183.964 E34.23365
G1 X184.505 Y183.785 E34.24682
G1 X184.428 Y183.627 E34.25559
G1 X184.4 Y183.444 E34.26482
G1 X184.4 Y136.552 E36.60428
G1 X184.428 Y136.37 E36.61346
G1 X184.505 Y136.212 E36.62223
G1 X184.7 Y136.032 E36.63547
G1 X185.193 Y135.806 E36.66253
G1 X185.944 Y135.263 E36.70876
G1 X186.551 Y134.585 E36.75416
G1 X187.017 Y133.781 E36.80053
G1 X187.301 Y132.91 E36.84623
G1 X187.396 Y131.999 E36.89193
G1 X187.301 Y131.086 E36.93772
G1 X187.017 Y130.215 E36.98343
G1 X186.551 Y129.411 E37.02979
G1 X185.944 Y128.733 E37.07519
G1 X185.194 Y128.191 E37.12136
G1 X184.352 Y127.814 E37.16739
G1 X183.464 Y127.624 E37.21269
G1 X182.536 Y127.624 E37.25899
G1 X181.647 Y127.814 E37.30434
G1 X180.802 Y128.191 E37.35051
G1 X180.056 Y128.733 E37.39651
G1 X179.445 Y129.411 E37.44204
G1 X178.892 Y130.369 E37.49723
G1 X178.598 Y130.571 E37.51503
G1 X178.412 Y130.6 E37.52442
G1 X131.588 Y130.6 E39.86048
G1 X131.402 Y130.571 E39.86987
G1 X131.108 Y130.369 E39.88766
G1 X130.552 Y129.411 E39.94293
G1 X129.944 Y128.733 E39.98836
G1 X129.194 Y128.191 E40.03453
G1 X128.352 Y127.814 E40.08055
G1 X127.464 Y127.625 E40.12585
G1 X126.536 Y127.625 E40.17214
G1 X125.647 Y127.814 E40.21749
G1 X124.802 Y128.191 E40.26365
