;FLAVOR:Marlin
;TIME:3078
;Filament used: 7.78284m
;Layer height: 0.3
;MINX:111.015
;MINY:116.034
;MINZ:0.3
;MAXX:198.985
;MAXY:203.966
;MAXZ:50.1
;TARGET_MACHINE.NAME:Creality CR-10S Pro
;KLIPPERSETTINGSPROCESSED
SET_VELOCITY_LIMIT ACCEL=500 SQUARE_CORNER_VELOCITY=1 ;KlipperSettingsPlugin
SET_PRESSURE_ADVANCE ADVANCE=0 EXTRUDER=extruder ;KlipperSettingsPlugin

;Generated with Cura_SteamEngine 5.9.0
M82 ;absolute extrusion mode
START_PRINT BED_TEMP=60 EXTRUDER_TEMP=200
G92 E0
G92 E0
;LAYER_COUNT:167
TUNING_TOWER COMMAND=SET_PRESSURE_ADVANCE PARAMETER=ADVANCE START=0 FACTOR=0.02 ;KlipperSettingsPlugin
;LAYER:0
M107
G0 F6000 X184.749 Y203.889 Z0.3
;TYPE:SKIRT
G1 F1200 X183.807 Y203.95 E0.0471
G1 X183.005 Y203.966 E0.08711
G1 X182.337 Y203.961 E0.12044
G1 X181.365 Y203.901 E0.16903
G1 X180.503 Y203.773 E0.2125
G1 X179.303 Y203.536 E0.27353
G1 X177.998 Y203.239 E0.3403
G1 X175.502 Y202.707 E0.46762
G1 X172.988 Y202.244 E0.59516
G1 X170.543 Y201.867 E0.71858
G1 X168.014 Y201.548 E0.84575
G1 X165.52 Y201.306 E0.97076
G1 X163.026 Y201.135 E1.09548
G1 X160.459 Y201.031 E1.22365
G1 X158.095 Y201 E1.34161
G1 X151.866 Y201 E1.65237
G1 X149.283 Y201.037 E1.78125
G1 X146.717 Y201.146 E1.90938
G1 X144.238 Y201.322 E2.03337
G1 X141.737 Y201.569 E2.15876
G1 X139.229 Y201.89 E2.2849
G1 X136.746 Y202.28 E2.4103
G1 X134.294 Y202.736 E2.53473
G1 X131.455 Y203.35 E2.67964
G1 X130.331 Y203.615 E2.73725
G1 X129.669 Y203.752 E2.77098
G1 X128.776 Y203.887 E2.81604
G1 X127.803 Y203.95 E2.86468
G1 X127.006 Y203.966 E2.90445
G1 X126.337 Y203.961 E2.93783
G1 X125.366 Y203.901 E2.98637
G1 X124.473 Y203.768 E3.03141
G1 X123.653 Y203.611 E3.07306
G1 X123.023 Y203.472 E3.10525
G1 X122.085 Y203.211 E3.15382
G1 X121.212 Y202.884 E3.20033
G1 X119.952 Y202.335 E3.2689
G1 X119.115 Y201.905 E3.31585
G1 X118.182 Y201.311 E3.37103
G1 X117.315 Y200.693 E3.42415
G1 X116.543 Y200.088 E3.47308
G1 X115.733 Y199.317 E3.52887
G1 X115.131 Y198.678 E3.57267
G1 X114.657 Y198.143 E3.60833
G1 X114.097 Y197.434 E3.65341
G1 X113.586 Y196.666 E3.69943
G1 X113.176 Y195.988 E3.73896
G1 X112.852 Y195.421 E3.77154
G1 X112.419 Y194.551 E3.82002
G1 X112.077 Y193.688 E3.86634
G1 X111.816 Y192.935 E3.9061
G1 X111.622 Y192.327 E3.93794
G1 X111.392 Y191.453 E3.98302
G1 X111.218 Y190.441 E4.03425
G1 X111.121 Y189.655 E4.07377
G1 X111.059 Y189.036 E4.1048
G1 X111.015 Y188.064 E4.15334
G1 X111.054 Y187.116 E4.20068
G1 X111.122 Y186.327 E4.24019
G1 X111.192 Y185.685 E4.27241
G1 X111.41 Y184.447 E4.33512
G1 X111.617 Y183.567 E4.38023
G1 X112.163 Y181.095 E4.50653
G1 X112.638 Y178.615 E4.6325
G1 X113.044 Y176.116 E4.75881
G1 X113.37 Y173.675 E4.88168
G1 X113.638 Y171.119 E5.0099
G1 X113.827 Y168.638 E5.13403
G1 X113.946 Y166.148 E5.2584
G1 X114 Y162.971 E5.41692
G1 X114 Y156.944 E5.71761
G1 X113.963 Y154.351 E5.84699
G1 X113.854 Y151.807 E5.97403
G1 X113.678 Y149.322 E6.09832
G1 X113.431 Y146.827 E6.2234
G1 X113.11 Y144.32 E6.3495
G1 X112.72 Y141.837 E6.47489
G1 X112.257 Y139.348 E6.6012
G1 X111.732 Y136.906 E6.72581
G1 X111.436 Y135.673 E6.78908
G1 X111.233 Y134.556 E6.84572
G1 X111.121 Y133.657 E6.89091
G1 X111.058 Y133.021 E6.9228
G1 X111.015 Y132.049 E6.97134
G1 X111.054 Y131.116 E7.01793
G1 X111.122 Y130.326 E7.05749
G1 X111.191 Y129.704 E7.08871
G1 X111.35 Y128.743 E7.13731
G1 X111.585 Y127.827 E7.18449
G1 X111.822 Y127.046 E7.2252
G1 X112.026 Y126.433 E7.25744
G1 X112.384 Y125.53 E7.3059
G1 X112.786 Y124.721 E7.35097
G1 X113.176 Y124.013 E7.39129
G1 X113.52 Y123.428 E7.42515
G1 X114.061 Y122.615 E7.47387
G1 X114.671 Y121.853 E7.52257
G1 X115.371 Y121.056 E7.57549
G1 X115.997 Y120.404 E7.62059
G1 X116.976 Y119.569 E7.68478
G1 X117.638 Y119.068 E7.7262
G1 X118.173 Y118.685 E7.75903
G1 X118.966 Y118.181 E7.8059
G1 X119.873 Y117.711 E7.85687
G1 X120.853 Y117.262 E7.91065
G1 X121.69 Y116.922 E7.95572
G1 X122.907 Y116.562 E8.01904
G1 X123.67 Y116.384 E8.05813
G1 X124.246 Y116.264 E8.08748
G1 X125.251 Y116.111 E8.1382
G1 X126.193 Y116.05 E8.18529
G1 X126.995 Y116.034 E8.22531
G1 X127.663 Y116.039 E8.25864
G1 X128.635 Y116.099 E8.30722
G1 X129.497 Y116.227 E8.3507
G1 X130.697 Y116.464 E8.41173
G1 X132.002 Y116.761 E8.4785
G1 X134.5 Y117.293 E8.60592
G1 X137.012 Y117.756 E8.73335
G1 X139.457 Y118.133 E8.85678
G1 X141.986 Y118.452 E8.98395
G1 X144.48 Y118.694 E9.10896
G1 X146.974 Y118.865 E9.23368
G1 X149.541 Y118.969 E9.36185
G1 X151.905 Y119 E9.4798
G1 X158.134 Y119 E9.79057
G1 X160.717 Y118.963 E9.91945
G1 X163.283 Y118.854 E10.04758
G1 X165.762 Y118.678 E10.17157
G1 X168.263 Y118.431 E10.29695
G1 X170.771 Y118.11 E10.4231
G1 X173.254 Y117.72 E10.54849
G1 X175.706 Y117.264 E10.67292
G1 X178.545 Y116.65 E10.81783
G1 X179.669 Y116.385 E10.87545
G1 X180.331 Y116.248 E10.90918
G1 X181.224 Y116.113 E10.95423
G1 X182.197 Y116.05 E11.00288
G1 X182.994 Y116.034 E11.04265
G1 X183.663 Y116.039 E11.07603
G1 X184.634 Y116.099 E11.12456
G1 X185.527 Y116.232 E11.16961
G1 X186.347 Y116.389 E11.21126
G1 X186.977 Y116.528 E11.24345
G1 X187.915 Y116.789 E11.29202
G1 X188.788 Y117.116 E11.33853
G1 X190.048 Y117.665 E11.4071
G1 X190.885 Y118.095 E11.45405
G1 X191.818 Y118.689 E11.50923
G1 X192.685 Y119.307 E11.56235
G1 X193.457 Y119.912 E11.61128
G1 X194.267 Y120.683 E11.66707
G1 X194.869 Y121.322 E11.71087
G1 X195.343 Y121.857 E11.74653
G1 X195.903 Y122.566 E11.7916
G1 X196.414 Y123.334 E11.83763
G1 X196.824 Y124.012 E11.87716
G1 X197.148 Y124.579 E11.90974
G1 X197.581 Y125.449 E11.95822
G1 X197.923 Y126.312 E12.00453
G1 X198.184 Y127.065 E12.04429
G1 X198.378 Y127.673 E12.07613
G1 X198.615 Y128.581 E12.12295
G1 X198.781 Y129.552 E12.1721
G1 X198.877 Y130.326 E12.21101
G1 X198.942 Y130.969 E12.24325
G1 X198.985 Y131.94 E12.29174
G1 X198.946 Y132.884 E12.33888
G1 X198.878 Y133.675 E12.37849
G1 X198.806 Y134.325 E12.41111
G1 X198.591 Y135.543 E12.47282
G1 X198.4 Y136.356 E12.51448
G1 X197.837 Y138.905 E12.64472
G1 X197.362 Y141.385 E12.7707
G1 X196.956 Y143.884 E12.89701
G1 X196.63 Y146.325 E13.01987
G1 X196.362 Y148.881 E13.14809
G1 X196.173 Y151.362 E13.27222
G1 X196.054 Y153.852 E13.39659
G1 X196 Y157.014 E13.55437
G1 X196 Y163.056 E13.8558
G1 X196.037 Y165.627 E13.98409
G1 X196.146 Y168.193 E14.11222
G1 X196.32 Y170.656 E14.2354
G1 X196.566 Y173.141 E14.35999
G1 X196.894 Y175.704 E14.4889
G1 X197.277 Y178.145 E14.61217
G1 X197.739 Y180.63 E14.73827
G1 X198.264 Y183.076 E14.86308
G1 X198.564 Y184.329 E14.92736
G1 X198.772 Y185.486 E14.98601
G1 X198.876 Y186.322 E15.02804
G1 X198.941 Y186.965 E15.06028
G1 X198.985 Y187.937 E15.10883
G1 X198.947 Y188.876 E15.15571
G1 X198.881 Y189.651 E15.19452
G1 X198.808 Y190.304 E15.2273
G1 X198.649 Y191.264 E15.27585
G1 X198.417 Y192.168 E15.32241
G1 X198.181 Y192.948 E15.36306
G1 X197.982 Y193.546 E15.39451
G1 X197.617 Y194.468 E15.44398
G1 X197.216 Y195.275 E15.48894
G1 X196.839 Y195.96 E15.52795
G1 X196.493 Y196.551 E15.56211
G1 X195.954 Y197.366 E15.61086
G1 X195.329 Y198.147 E15.66077
G1 X194.629 Y198.944 E15.71369
G1 X194.003 Y199.596 E15.75878
G1 X193.025 Y200.431 E15.82294
G1 X192.363 Y200.932 E15.86436
G1 X191.849 Y201.301 E15.89592
G1 X191.089 Y201.788 E15.94096
G1 X190.128 Y202.289 E15.99503
G1 X189.148 Y202.738 E16.04881
G1 X188.311 Y203.078 E16.09388
G1 X187.091 Y203.438 E16.15734
G1 X186.327 Y203.616 E16.19648
G1 X185.754 Y203.736 E16.22568
G1 X184.749 Y203.889 E16.2764
G0 F6000 X184.723 Y203.49
G1 F1200 X183.799 Y203.55 E16.3226
G1 X183.007 Y203.566 E16.36212
G1 X182.361 Y203.562 E16.39435
G1 X181.424 Y203.505 E16.44118
G1 X180.562 Y203.377 E16.48466
G1 X179.392 Y203.146 E16.54416
G1 X178.087 Y202.849 E16.61093
G1 X175.585 Y202.316 E16.73855
G1 X173.049 Y201.849 E16.8672
G1 X170.593 Y201.47 E16.99118
G1 X168.064 Y201.151 E17.11835
G1 X165.553 Y200.907 E17.24422
G1 X163.042 Y200.735 E17.36979
G1 X160.475 Y200.631 E17.49796
G1 X158.1 Y200.6 E17.61646
G1 X151.86 Y200.6 E17.92777
G1 X149.266 Y200.637 E18.0572
G1 X146.7 Y200.746 E18.18534
G1 X144.207 Y200.923 E18.31003
G1 X141.686 Y201.172 E18.43641
G1 X139.178 Y201.493 E18.56256
G1 X136.684 Y201.885 E18.68851
G1 X134.209 Y202.345 E18.8141
G1 X131.37 Y202.96 E18.95903
G1 X130.25 Y203.223 E19.01642
G1 X129.609 Y203.356 E19.04908
G1 X128.716 Y203.491 E19.09414
G1 X127.795 Y203.55 E19.14019
G1 X127.008 Y203.566 E19.17946
G1 X126.361 Y203.562 E19.21174
G1 X125.425 Y203.505 E19.25852
G1 X124.548 Y203.375 E19.30275
G1 X123.739 Y203.22 E19.34385
G1 X123.13 Y203.086 E19.37496
G1 X122.225 Y202.836 E19.4218
G1 X121.372 Y202.517 E19.46723
G1 X120.135 Y201.979 E19.53453
G1 X119.298 Y201.549 E19.58148
G1 X118.414 Y200.985 E19.63379
G1 X117.561 Y200.378 E19.68602
G1 X116.819 Y199.798 E19.73301
G1 X116.009 Y199.027 E19.7888
G1 X115.43 Y198.412 E19.83094
G1 X114.971 Y197.895 E19.86543
G1 X114.411 Y197.186 E19.91051
G1 X113.928 Y196.459 E19.95405
G1 X113.523 Y195.79 E19.99307
G1 X113.21 Y195.242 E20.02456
G1 X112.791 Y194.404 E20.0713
G1 X112.455 Y193.557 E20.11676
G1 X112.197 Y192.813 E20.15605
G1 X112.009 Y192.225 E20.18684
G1 X111.779 Y191.351 E20.23193
G1 X111.615 Y190.392 E20.28047
G1 X111.519 Y189.615 E20.31953
G1 X111.459 Y189.017 E20.34952
G1 X111.415 Y188.08 E20.39631
G1 X111.453 Y187.15 E20.44275
G1 X111.52 Y186.37 E20.48181
G1 X111.59 Y185.728 E20.51403
G1 X111.804 Y184.517 E20.57538
G1 X112.008 Y183.653 E20.61967
G1 X112.554 Y181.181 E20.74597
G1 X113.031 Y178.69 E20.87251
G1 X113.439 Y176.18 E20.99937
G1 X113.768 Y173.717 E21.12335
G1 X114.036 Y171.161 E21.25156
G1 X114.226 Y168.668 E21.3763
G1 X114.346 Y166.167 E21.50122
G1 X114.4 Y162.978 E21.66034
G1 X114.4 Y156.944 E21.96138
G1 X114.363 Y154.345 E22.09106
G1 X114.254 Y151.79 E22.21864
G1 X114.077 Y149.294 E22.34348
G1 X113.828 Y146.776 E22.46972
G1 X113.507 Y144.269 E22.59581
G1 X113.115 Y141.775 E22.72177
G1 X112.65 Y139.275 E22.84863
G1 X112.123 Y136.822 E22.97381
G1 X111.83 Y135.601 E23.03645
G1 X111.627 Y134.484 E23.09309
G1 X111.519 Y133.617 E23.13668
G1 X111.458 Y133.003 E23.16746
G1 X111.415 Y132.066 E23.21426
G1 X111.453 Y131.15 E23.26
G1 X111.52 Y130.37 E23.29906
G1 X111.586 Y129.769 E23.32922
G1 X111.738 Y128.842 E23.37609
G1 X111.968 Y127.943 E23.42238
G1 X112.202 Y127.172 E23.46258
G1 X112.398 Y126.58 E23.49369
G1 X112.742 Y125.708 E23.54046
G1 X113.136 Y124.914 E23.58468
G1 X113.521 Y124.215 E23.62449
G1 X113.853 Y123.649 E23.65723
G1 X114.373 Y122.865 E23.70417
G1 X114.971 Y122.117 E23.75194
G1 X115.66 Y121.333 E23.80402
G1 X116.286 Y120.681 E23.84911
G1 X117.217 Y119.888 E23.91012
G1 X117.871 Y119.393 E23.95104
G1 X118.388 Y119.023 E23.98276
G1 X119.181 Y118.519 E24.02964
G1 X120.04 Y118.075 E24.07788
G1 X121.004 Y117.633 E24.13079
G1 X121.841 Y117.293 E24.17586
G1 X122.998 Y116.952 E24.23604
G1 X123.752 Y116.776 E24.27467
G1 X124.328 Y116.656 E24.30402
G1 X125.277 Y116.51 E24.35192
G1 X126.201 Y116.45 E24.39812
G1 X126.993 Y116.434 E24.43764
G1 X127.639 Y116.438 E24.46987
G1 X128.576 Y116.495 E24.5167
G1 X129.438 Y116.623 E24.56018
G1 X130.608 Y116.854 E24.61968
G1 X131.913 Y117.151 E24.68645
G1 X134.416 Y117.684 E24.81413
G1 X136.951 Y118.151 E24.94273
G1 X139.407 Y118.53 E25.06671
G1 X141.936 Y118.849 E25.19388
G1 X144.447 Y119.093 E25.31974
G1 X146.958 Y119.265 E25.44531
G1 X149.525 Y119.369 E25.57348
G1 X151.9 Y119.4 E25.69198
G1 X158.14 Y119.4 E26.0033
G1 X160.734 Y119.363 E26.13273
G1 X163.3 Y119.254 E26.26086
G1 X165.793 Y119.077 E26.38555
G1 X168.314 Y118.828 E26.51194
G1 X170.822 Y118.507 E26.63808
G1 X173.316 Y118.115 E26.76403
G1 X175.791 Y117.655 E26.88963
G1 X178.63 Y117.04 E27.03455
G1 X179.75 Y116.777 E27.09195
G1 X180.391 Y116.644 E27.12461
G1 X181.284 Y116.509 E27.16967
G1 X182.205 Y116.45 E27.21571
G1 X182.992 Y116.434 E27.25498
G1 X183.639 Y116.438 E27.28726
G1 X184.575 Y116.495 E27.33404
G1 X185.452 Y116.625 E27.37828
G1 X186.261 Y116.78 E27.41937
G1 X186.87 Y116.914 E27.45048
G1 X187.775 Y117.164 E27.49732
G1 X188.628 Y117.483 E27.54276
G1 X189.865 Y118.021 E27.61006
G1 X190.702 Y118.451 E27.657
G1 X191.586 Y119.015 E27.70932
G1 X192.439 Y119.622 E27.76155
G1 X193.181 Y120.202 E27.80854
G1 X193.991 Y120.973 E27.86433
G1 X194.57 Y121.588 E27.90647
G1 X195.029 Y122.105 E27.94096
G1 X195.589 Y122.814 E27.98603
G1 X196.072 Y123.541 E28.02958
G1 X196.477 Y124.21 E28.06859
G1 X196.79 Y124.758 E28.10008
G1 X197.209 Y125.596 E28.14682
G1 X197.545 Y126.443 E28.19228
G1 X197.803 Y127.187 E28.23157
G1 X197.991 Y127.775 E28.26237
G1 X198.221 Y128.649 E28.30746
G1 X198.384 Y129.601 E28.35564
G1 X198.479 Y130.366 E28.3941
G1 X198.542 Y130.987 E28.42524
G1 X198.585 Y131.924 E28.47204
G1 X198.547 Y132.85 E28.51828
G1 X198.48 Y133.631 E28.55738
G1 X198.408 Y134.281 E28.59001
G1 X198.202 Y135.451 E28.64928
G1 X198.009 Y136.27 E28.69126
G1 X197.446 Y138.819 E28.8215
G1 X196.969 Y141.31 E28.94803
G1 X196.561 Y143.82 E29.0749
G1 X196.232 Y146.283 E29.19887
G1 X195.964 Y148.839 E29.32709
G1 X195.774 Y151.332 E29.45182
G1 X195.654 Y153.833 E29.57674
G1 X195.6 Y157.007 E29.73512
G1 X195.6 Y163.056 E30.0369
G1 X195.637 Y165.644 E30.16603
G1 X195.746 Y168.21 E30.29417
G1 X195.922 Y170.695 E30.41845
G1 X196.169 Y173.192 E30.54364
G1 X196.497 Y175.755 E30.67255
G1 X196.884 Y178.218 E30.79694
G1 X197.348 Y180.714 E30.9236
G1 X197.875 Y183.169 E31.04887
G1 X198.17 Y184.4 E31.11202
G1 X198.375 Y185.535 E31.16956
G1 X198.478 Y186.362 E31.21114
G1 X198.541 Y186.984 E31.24233
G1 X198.585 Y187.921 E31.28913
G1 X198.548 Y188.842 E31.33511
G1 X198.483 Y189.607 E31.37342
G1 X198.413 Y190.239 E31.40514
G1 X198.261 Y191.165 E31.45196
G1 X198.034 Y192.052 E31.49764
G1 X197.801 Y192.822 E31.53777
G1 X197.61 Y193.399 E31.5681
G1 X197.259 Y194.29 E31.61587
G1 X196.866 Y195.082 E31.65998
G1 X196.494 Y195.758 E31.69848
G1 X196.159 Y196.331 E31.73159
G1 X195.642 Y197.116 E31.77849
G1 X195.029 Y197.883 E31.82747
G1 X194.34 Y198.667 E31.87954
G1 X193.714 Y199.319 E31.92464
G1 X192.783 Y200.112 E31.98565
G1 X192.13 Y200.607 E32.02653
G1 X191.633 Y200.964 E32.05706
G1 X190.873 Y201.451 E32.10209
G1 X189.961 Y201.925 E32.15337
G1 X188.997 Y202.367 E32.20628
G1 X188.16 Y202.707 E32.25135
G1 X187 Y203.048 E32.31167
G1 X186.245 Y203.224 E32.35035
G1 X185.672 Y203.344 E32.37956
G1 X184.723 Y203.49 E32.42746
G0 F6000 X185.59 Y202.952
G1 F1200 X184.697 Y203.091 E32.47255
G1 X183.791 Y203.15 E32.51785
G1 X183.009 Y203.166 E32.55687
G1 X182.385 Y203.163 E32.588
G1 X181.483 Y203.109 E32.63308
G1 X180.621 Y202.981 E32.67656
G1 X179.481 Y202.756 E32.73453
G1 X178.176 Y202.459 E32.8013
G1 X175.668 Y201.925 E32.92923
G1 X173.11 Y201.454 E33.059
G1 X170.643 Y201.073 E33.18353
G1 X168.114 Y200.754 E33.31071
G1 X165.586 Y200.508 E33.43742
G1 X163.058 Y200.335 E33.56384
G1 X160.491 Y200.231 E33.69202
G1 X158.105 Y200.2 E33.81106
G1 X151.854 Y200.2 E34.12293
G1 X149.249 Y200.237 E34.2529
G1 X146.683 Y200.346 E34.38104
G1 X144.176 Y200.524 E34.50643
G1 X141.635 Y200.775 E34.63382
G1 X139.127 Y201.096 E34.75996
G1 X136.622 Y201.49 E34.88647
G1 X134.124 Y201.954 E35.01323
G1 X131.285 Y202.57 E35.15816
G1 X130.169 Y202.831 E35.21534
G1 X129.549 Y202.96 E35.24694
G1 X128.656 Y203.095 E35.292
G1 X127.787 Y203.15 E35.33544
G1 X127.01 Y203.166 E35.37421
G1 X126.385 Y203.163 E35.40539
G1 X125.483 Y203.109 E35.45047
G1 X124.623 Y202.982 E35.49384
G1 X123.825 Y202.829 E35.53438
G1 X123.236 Y202.7 E35.56446
G1 X122.365 Y202.461 E35.60952
G1 X121.531 Y202.15 E35.65393
G1 X120.317 Y201.623 E35.71996
G1 X119.513 Y201.212 E35.76501
G1 X118.646 Y200.659 E35.81631
G1 X117.807 Y200.063 E35.86766
G1 X117.095 Y199.508 E35.9127
G1 X116.285 Y198.737 E35.96849
G1 X115.729 Y198.146 E36.00897
G1 X115.285 Y197.647 E36.04229
G1 X114.725 Y196.938 E36.08737
G1 X114.27 Y196.252 E36.12844
G1 X113.87 Y195.591 E36.16698
G1 X113.568 Y195.063 E36.19733
G1 X113.163 Y194.256 E36.24237
G1 X112.833 Y193.426 E36.28694
G1 X112.578 Y192.691 E36.32575
G1 X112.396 Y192.123 E36.35551
G1 X112.166 Y191.249 E36.4006
G1 X112.012 Y190.343 E36.44644
G1 X111.917 Y189.575 E36.48505
G1 X111.859 Y188.998 E36.51398
G1 X111.815 Y188.096 E36.55904
G1 X111.852 Y187.184 E36.60458
G1 X111.918 Y186.413 E36.64318
G1 X111.988 Y185.771 E36.6754
G1 X112.193 Y184.609 E36.73427
G1 X112.399 Y183.739 E36.77887
